!!!!SEGMENT: pl-kk--kk-i-388--009_anonim--offertorium-tu-es-sacerdos.krn
!!!cenid: 18xx:1406
!!!COM: Anonim
!!!COM-rismid: pe30004985
!!!CDT:
!!!CNT:
!!!OTL: Offertorium – Tu es sacerdos
!!!PDT:
!!!AGN: Sacred
!!!SMS-siglum: PL-Kk
!!!SMS-shelfmark: Kk.I.388
!!!SMS-shelfwork: 009 W
!!!SMS-variant:
!!!SMS-altvar:
!!!NIFC-rismid: 1001140866
!!!URL-scan: http://repozytorium.nifc.pl/skany/pl-kk-nut--i-388
!!!ONB-nifc:
**kern	**text	**kern	**text	**kern	**text	**kern	**text
*part4	*part4	*part3	*part3	*part2	*part2	*part1	*part1
*staff4	*staff4	*staff3	*staff3	*staff2	*staff2	*staff1	*staff1
*I"Basso.	*	*I"Tenore.	*	*I"Alto.	*	*I"Soprano.	*
*I'B	*	*I'T	*	*I'A	*	*I'S	*
*clefF4	*	*clefC4	*	*clefC3	*	*clefC1	*
*k[b-e-]	*	*k[b-e-]	*	*k[b-e-]	*	*k[b-e-]	*
*M4/4	*	*M4/4	*	*M4/4	*	*M4/4	*
*met(C.)	*	*met(C.)	*	*met(C.)	*	*met(C.)	*
=1	=1	=1	=1	=1	=1	=1	=1
*all\right	*	*all\right	*	*all\right	*	*all\right	*
!LO:TX:a:t=4.	!	!	!	!LO:TX:a:t=i2	!	!LO:TX:a:t=8	!
!LO:TX:a:t=in G. mol.	!	!LO:TX:a:t=in G mol	!	!LO:TX:a:t=in G mol	!	!LO:TX:a:t=in G.mol.	!
!LO:TX:a:t=No 9. Offer&colon;	!	!LO:TX:a:t=No 9. Offertorium..	!	!LO:TX:a:t=No 9.ty. Offertorium	!	!LO:TX:a:t=No 9. Offertorium.	!
00r	.	1d	Tu	00r	.	00r	.
=2	=2	=2	=2	=2	=2	=2	=2
*	*	*2\right	*	*	*	*	*
.	.	2B-X\	es	.	.	.	.
.	.	2G/	Sa-	.	.	.	.
=3	=3	=3	=3	=3	=3	=3	=3
.	.	1e-X	-cer-	.	.	.	.
=4	=4	=4	=4	=4	=4	=4	=4
.	.	2A\	-dos	.	.	.	.
.	.	4d\	in	.	.	.	.
.	.	4c\	e-	.	.	.	.
=5	=5	=5	=5	=5	=5	=5	=5
1G	Tu	4B-\	-ter-	00r	.	00r	.
.	.	4A\	.	.	.	.	.
.	.	4B-\	.	.	.	.	.
.	.	4c\	.	.	.	.	.
!	!	!LO:LB:g=original	!	!	!	!	!
=6	=6	=6	=6	=6	=6	=6	=6
*2\right	*	*	*	*	*	*	*
2F\	es	[1d	.	.	.	.	.
2D\	Sa-	.	.	.	.	.	.
=7	=7	=7	=7	=7	=7	=7	=7
1B-	-cer-	1d]	-num	.	.	.	.
=8	=8	=8	=8	=8	=8	=8	=8
2En\	-dos,	2d\	.	.	.	.	.
4A\	in	2c#X\	se-	.	.	.	.
4G\	e-	.	.	.	.	.	.
=9	=9	=9	=9	=9	=9	=9	=9
4F\	-ter-	2.d\	-cun-	00r	.	1dd	Tu
4D\	.	.	.	.	.	.	.
4En\	.	.	.	.	.	.	.
4F#X\	.	4A\	-dum	.	.	.	.
=10	=10	=10	=10	=10	=10	=10	=10
*	*	*	*	*	*	*2\right	*
[1G	.	4G\	or-	.	.	2b-\	es
.	.	4B-X\	.	.	.	.	.
.	.	4e-X\	.	.	.	2g\	Sa-
.	.	4d\	-di-	.	.	.	.
=11	=11	=11	=11	=11	=11	=11	=11
2G\]	.	2c\	-nem	.	.	1ee-	-cer-
2G\	-num	2c\	Mel-	.	.	.	.
!LO:LB:g=original	!	!	!	!	!	!	!
=12	=12	=12	=12	=12	=12	=12	=12
2G\	se-	2d\	-chi-	.	.	2a\	-dos,
2F#X\	.	2d\	-se-	.	.	4dd\	in
.	.	.	.	.	.	4cc\	e-
=13	=13	=13	=13	=13	=13	=13	=13
2.G\	-cun-	2d\	-deh	1g	Tu	4b-\	-ter-
.	.	.	.	.	.	4a\	.
.	.	2r	.	.	.	4b-\	.
4E-X\	-dum	.	.	.	.	4cc\	.
!	!	!	!	!	!	!LO:LB:g=original	!
=14	=14	=14	=14	=14	=14	=14	=14
*	*	*	*	*2\right	*	*	*
!	!	!LO:TX:a:t=3.	!	!	!	!	!
4D\	or-	0r	.	2f#X\	es	[1dd	.
!LO:SIC:v:s=4F#	!	!	!	!	!	!	!
4F\	.	.	.	.	.	.	.
4B-\	.	.	.	2d\	Sa-	.	.
4A\	-di-	.	.	.	.	.	.
=15	=15	=15	=15	=15	=15	=15	=15
2G\	-nem	.	.	1b-X	-cer-	2dd\]	.
2G\	Mel-	.	.	.	.	[2dd\	-num,
=16	=16	=16	=16	=16	=16	=16	=16
2A\	-hi-	1r	.	2en\	-dos,	2dd\]	.
2A\	-se-	.	.	4a\	in	2cc#X\	se-
.	.	.	.	4g\	e-	.	.
!	!	!LO:LB:g=original	!	!LO:LB:g=original	!	!	!
=17	=17	=17	=17	=17	=17	=17	=17
2D\	-deh,	2r	.	4fn\	-ter-	2dd\	-cun-
.	.	.	.	4d\	.	.	.
2r	.	2A\	tu	4e-\	.	2ccn\	-dum
.	.	.	.	4f#X\	.	.	.
=18	=18	=18	=18	=18	=18	=18	=18
!LO:TX:a:t=3.	!	!	!	!	!	!	!
0r	.	2B-\	es	1g	.	2.b-\	or-
.	.	2G/	Sa-	.	.	.	.
.	.	.	.	.	.	4b-\	-di-
=19	=19	=19	=19	=19	=19	=19	=19
.	.	2c\	-cer-	1g	-num,	2a\	-nem
.	.	2c#X\	-dos	.	.	2a\	Mel-
=20	=20	=20	=20	=20	=20	=20	=20
1r	.	2d\	in	2g\	.	2.a\	-hi-
.	.	2cn\	e-	2f#X\	se-	.	.
.	.	.	.	.	.	4a\	-se-
=21	=21	=21	=21	=21	=21	=21	=21
2r	.	2B-\	-ter-	2g\	-cun-	2g\	-dech,
2D\	tu	2Bn\	.	2fn\	.	2r	.
=22	=22	=22	=22	=22	=22	=22	=22
!	!	!	!	!	!	!LO:TX:a:t=3.	!
2E-\	es	1c	.	1e-X	-dum	0r	.
2C/	Sa-	.	.	.	.	.	.
!LO:LB:g=original	!	!	!	!	!	!	!
=23	=23	=23	=23	=23	=23	=23	=23
2F\	-cer-	1c	.	[y1d	or-	.	.
2F#X\	-dos	.	.	.	.	.	.
=24	=24	=24	=24	=24	=24	=24	=24
!	!	!	!	!LO:N:vis=xstem:cue	!	!	!
2G\	in	1Bn	.	2d\]	.	1r	.
2Fn\	e-	.	.	2d\	-di-	.	.
!	!	!	!	!	!	!LO:LB:g=original	!
=25	=25	=25	=25	=25	=25	=25	=25
2E-X\	-ter-	2c\	-num,	1e-	-nem,	2r	.
2C/	.	2r	.	.	.	2a\	tu
=26	=26	=26	=26	=26	=26	=26	=26
2GG/	-num,	2r	.	2.d\	Mel-	2b-X\	es
2r	.	2B-X\	in	.	.	2g\	Sa-
.	.	.	.	4d\	-hi-	.	.
!	!	!LO:LB:g=original	!	!LO:LB:g=original	!	!	!
=27	=27	=27	=27	=27	=27	=27	=27
!LO:TX:a:t=3.	!	!	!	!	!	!	!
0r	.	2B-\	.	1en	-se-	2cc\	-cer-
.	.	4A/	.	.	.	2cc#X\	-dos
.	.	4G/	e-	.	.	.	.
=28	=28	=28	=28	=28	=28	=28	=28
.	.	4F#X/	-ter-	2A/	-deh,	2dd\	in
.	.	4D/	.	.	.	.	.
.	.	4En/	.	2r	.	2ccn\	e-
.	.	4F#/	.	.	.	.	.
=29	=29	=29	=29	=29	=29	=29	=29
1r	.	1G	-num	2r	.	2b-X\	-ter-
.	.	.	.	2d\	tu	2bn\	.
=30	=30	=30	=30	=30	=30	=30	=30
!	!	!LO:TX:a:t=3.	!	!	!	!	!
2r	.	0r	.	2e-X\	es	4cc\	.
.	.	.	.	.	.	4dd\	.
2E-\	in	.	.	2c\	Sa-	4cc\	.
.	.	.	.	.	.	4b-X\	.
=31	=31	=31	=31	=31	=31	=31	=31
2E-\	.	.	.	2f\	-cer-	1a	-num,
4D\	.	.	.	2f#X\	-dos,	.	.
4C\	e-	.	.	.	.	.	.
=32	=32	=32	=32	=32	=32	=32	=32
4BBn/	-ter-	1r	.	2g\	in	2d/	in
4GG/	.	.	.	.	.	.	.
4AA/	.	.	.	2fn\	e-	2dd\	e-
4BB/	.	.	.	.	.	.	.
=33	=33	=33	=33	=33	=33	=33	=33
2C/	-num,	1c	tu	2e-X\	-ter-	1g	-ter-
2r	.	.	.	2en\	.	.	.
!LO:LB:g=original	!	!	!	!	!	!LO:LB:g=original	!
=34	=34	=34	=34	=34	=34	=34	=34
!LO:TX:a:t=1.	!	!	!	!	!	!	!
1r	.	2A-X\	es	2f\	.	2a-X\	-num,
.	.	2F/	Sa-	4g\	.	2r	.
.	.	.	.	4a-X\	-num,	.	.
=35	=35	=35	=35	=35	=35	=35	=35
!	!	!	!	!	!	!LO:TX:a:t=2	!
2r	.	1d-X	-cer-	2b-\	in	0r	.
[2F\	in	.	.	2b-\	e-	.	.
!	!	!	!	!LO:LB:g=original	!	!	!
=36	=36	=36	=36	=36	=36	=36	=36
2F\]	.	2G/	-dos	1cc	-ter-	.	.
2En\	e-	4c\	in	.	.	.	.
.	.	4B-X\	e-	.	.	.	.
=37	=37	=37	=37	=37	=37	=37	=37
2F\	-ter-	2A-X\	-ter-	1cc	-num,	1ff	tu
2F\	-num,	2An\	-num	.	.	.	.
!	!	!LO:LB:g=original	!	!	!	!	!
=38	=38	=38	=38	=38	=38	=38	=38
1G	Tu	2B-X\	in	2r	.	2dd\	es
.	.	2d\	e-	[2g\	in	2b-X\	Sa-
=39	=39	=39	=39	=39	=39	=39	=39
2E-X\	es	1e-X	-ter-	2g\]	.	1gg	-cer-
2C/	Sa-	.	.	2e-\	e-	.	.
=40	=40	=40	=40	=40	=40	=40	=40
2F\	-cer-	2A\	.	2an\	-ter-	2cc\	.
2E-X\	-dos	2c\	.	2g\	-num,	2ee-X\	-dos,
=41	=41	=41	=41	=41	=41	=41	=41
2D/	in	1d	.	2f\	in	1ff	in
2BB-/	e-	.	.	2d\	e-	.	.
=42	=42	=42	=42	=42	=42	=42	=42
2E-\	-ter-	2G/	.	2g\	-ter-	2b-X\	.
2D\	.	2B-\	.	2f\	.	2dd\	e-
=43	=43	=43	=43	=43	=43	=43	=43
2C/	.	2c\	-num,	1e-	.	1ee-X	-ter-
2AA/	.	2c\	tu	.	.	.	.
!LO:LB:g=original	!	!	!	!	!	!	!
=44	=44	=44	=44	=44	=44	=44	=44
2D\	-num,	2A\	es	1d	-num	1f#X	.
2r	.	2A\	Sa-	.	.	.	.
=45	=45	=45	=45	=45	=45	=45	=45
1G	tu	4B-\	-cer-	2r	.	2g\	-num,
.	.	4c\	.	.	.	.	.
.	.	4B-\	.	2d\	tu	2r	.
.	.	4A\	.	.	.	.	.
!	!	!	!	!LO:LB:g=original	!	!LO:PB:g=original	!
=46	=46	=46	=46	=46	=46	=46	=46
!	!	!	!	!	!	!LO:TX:a:t=1.	!
1G	.	4B-\	.	2d\	es	1r	.
.	.	4G\	.	.	.	.	.
.	.	4A\	.	2d\	Sa-	.	.
.	.	4B-\	.	.	.	.	.
!	!	!LO:LB:g=original	!	!	!	!	!
=47	=47	=47	=47	=47	=47	=47	=47
1E-	es	1c	-dos	4g\	-cer-	2r	.
!	!	!	!	!LO:SIC:v:s=4a-	!	!	!
.	.	.	.	4a\	.	.	.
.	.	.	.	4g\	.	2ee-\	tu
.	.	.	.	4f\	.	.	.
=48	=48	=48	=48	=48	=48	=48	=48
!	!	!LO:TX:a:t=1.	!	!	!	!	!
1C	Sa-	1r	.	4g\	.	2ee-\	es
.	.	.	.	4e-\	.	.	.
.	.	.	.	4f\	.	2ee-\	Sa-
.	.	.	.	4g\	.	.	.
=49	=49	=49	=49	=49	=49	=49	=49
1A-X	-cer-	2r	.	2c\	-dos,	4ee-\	-cer-
.	.	.	.	.	.	4ff\	.
.	.	2c\	in	2r	.	4ee-\	.
.	.	.	.	.	.	4dd\	.
!	!	!	!	!LO:PB:g=original	!	!	!
=50	=50	=50	=50	=50	=50	=50	=50
!LO:SIC:v:s=1A-	!	!	!	!LO:TX:a:t=4.	!	!	!
1A	.	2c\	.	00r	.	4ee-\	.
.	.	.	.	.	.	4cc\	.
.	.	2c\	e-	.	.	4dd\	.
.	.	.	.	.	.	4ee-\	.
=51	=51	=51	=51	=51	=51	=51	=51
1D	-dos,	4c\	-ter-	.	.	1ff	-dos,
.	.	4e-\	.	.	.	.	.
.	.	4d\	.	.	.	.	.
.	.	4c\	.	.	.	.	.
=52	=52	=52	=52	=52	=52	=52	=52
!	!	!	!	!	!	!LO:TX:a:t=1.	!
2G\	in	4Bn\	.	.	.	1r	.
.	.	4G\	.	.	.	.	.
2F\	e-	4A\	.	.	.	.	.
.	.	4B\	.	.	.	.	.
=53	=53	=53	=53	=53	=53	=53	=53
4E-\	-ter-	1c	-num,	.	.	1gg	in
4F\	.	.	.	.	.	.	.
4G\	.	.	.	.	.	.	.
4F\	.	.	.	.	.	.	.
=54	=54	=54	=54	=54	=54	=54	=54
!	!	!LO:TX:a:t=2.	!	!	!	!	!
4E-\	.	0r	.	2cc\	in	1gg	e-
4C\	.	.	.	.	.	.	.
4D\	.	.	.	2b-\	e-	.	.
4E-\	.	.	.	.	.	.	.
!	!	!	!	!	!	!LO:LB:g=original	!
=55	=55	=55	=55	=55	=55	=55	=55
1F	-num,	.	.	4a-X\	-ter-	1gg	-ter-
.	.	.	.	4b-\	.	.	.
.	.	.	.	4cc\	.	.	.
.	.	.	.	4b-\	.	.	.
!LO:LB:g=original	!	!LO:PB:g=original	!	!	!	!	!
=56	=56	=56	=56	=56	=56	=56	=56
!LO:TX:a:t=2	!	!	!	!	!	!	!
0r	.	2f\	in	4a-X\	.	1ff	-num,
.	.	.	.	4f\	.	.	.
.	.	2e-\	e-	4g\	.	.	.
.	.	.	.	4a-\	.	.	.
=57	=57	=57	=57	=57	=57	=57	=57
.	.	4d\	-ter-	1b-	.	1ff	in
.	.	4e-\	.	.	.	.	.
.	.	4f\	.	.	.	.	.
.	.	4e-\	.	.	.	.	.
=58	=58	=58	=58	=58	=58	=58	=58
2B-\	in	4d\	.	1B-	-num,	1ff	e-
.	.	4B-\	.	.	.	.	.
2A-X\	e-	4c\	.	.	.	.	.
.	.	4d\	.	.	.	.	.
=59	=59	=59	=59	=59	=59	=59	=59
!	!	!	!	!LO:TX:a:t=1.	!	!	!
4G\	-ter-	1B-	-num,	1r	.	1ff	-ter-
4A-X\	.	.	.	.	.	.	.
4B-\	.	.	.	.	.	.	.
4A-\	.	.	.	.	.	.	.
=60	=60	=60	=60	=60	=60	=60	=60
4G\	.	2e-\	in	1b-	in	1ee-	-num,
4E-\	.	.	.	.	.	.	.
4F\	.	2d\	e-	.	.	.	.
4G\	.	.	.	.	.	.	.
=61	=61	=61	=61	=61	=61	=61	=61
2A-X\	-num,	4c\	-ter-	1b-	.	1ee-	in
.	.	4d\	.	.	.	.	.
[2A-\	in	4e-\	.	.	.	.	.
.	.	4d\	.	.	.	.	.
=62	=62	=62	=62	=62	=62	=62	=62
2A-\]	.	4c\	.	1a-X	e-	1ee-	e-
.	.	4A-X\	.	.	.	.	.
!	!	!LO:LB:g=original	!	!	!	!	!
2G\	e-	4B-\	.	.	.	.	.
.	.	4c\	.	.	.	.	.
!	!	!	!	!LO:LB:g=original	!	!	!
=63	=63	=63	=63	=63	=63	=63	=63
4F\	-ter-	1A-X	-num,	1a-X	.	1ee-	-ter-
4G\	.	.	.	.	.	.	.
4A-X\	.	.	.	.	.	.	.
4G\	.	.	.	.	.	.	.
=64	=64	=64	=64	=64	=64	=64	=64
4F\	.	2d\	in	1a-X	-ter-	1dd	-num
4D\	.	.	.	.	.	.	.
!LO:LB:g=original	!	!	!	!	!	!	!
4E-X\	.	2c\	e-	.	.	.	.
4F\	.	.	.	.	.	.	.
=65	=65	=65	=65	=65	=65	=65	=65
2G\	num.	2Bn\	-ter-	2g\	-num	1dd	in
2A-X\	Se-	2c\	.	2r	.	.	.
=66	=66	=66	=66	=66	=66	=66	=66
!	!	!	!	!LO:TX:a:t=1.	!	!	!
2G\	-cun-	2Bn\	-num,	1r	.	1dd	e-
2F\	-dum	2r	.	.	.	.	.
=67	=67	=67	=67	=67	=67	=67	=67
!	!	!LO:TX:a:t=2	!	!	!	!	!
2En\	or-	0r	.	1g	tu	2cc\	-ter-
2F\	-di-	.	.	.	.	2dd-X\	.
=68	=68	=68	=68	=68	=68	=68	=68
4En\	-nem	.	.	1g	.	1cc	-num,
4C\	.	.	.	.	.	.	.
4D\	.	.	.	.	.	.	.
4E\	.	.	.	.	.	.	.
!	!	!	!	!	!	!LO:LB:g=original	!
=69	=69	=69	=69	=69	=69	=69	=69
!	!	!	!	!	!	!LO:TX:a:t=1.	!
4F\	Mel-	1f	tu	1an	es	1r	.
4En\	.	.	.	.	.	.	.
4F\	.	.	.	.	.	.	.
4G\	.	.	.	.	.	.	.
=70	=70	=70	=70	=70	=70	=70	=70
4A\	-hi-	1f	.	1cc	Sa-	1ff	tu
4F\	.	.	.	.	.	.	.
4G\	.	.	.	.	.	.	.
4A\	-se-	.	.	.	.	.	.
!LO:LB:g=original	!	!	!	!	!	!	!
=71	=71	=71	=71	=71	=71	=71	=71
2B-\	-deh	1d	es	1f	-cer-	1ff	.
2r	.	.	.	.	.	.	.
=72	=72	=72	=72	=72	=72	=72	=72
!LO:TX:a:t=1.	!	!	!	!	!	!	!
1r	.	1B-	Sa-	4f\	.	2dd\	es
.	.	.	.	4d\	.	.	.
.	.	.	.	4g\	.	2dd\	Sa-
.	.	.	.	4f\	.	.	.
=73	=73	=73	=73	=73	=73	=73	=73
1C	tu	1g	-cer-	1e-	-dos,	1ee-	-cer-
!	!	!LO:LB:g=original	!	!	!	!	!
=74	=74	=74	=74	=74	=74	=74	=74
!	!	!	!	!LO:TX:a:t=3.	!	!	!
2E-\	es	1g	-dos,	0r	.	1ee-	.
2G\	Sa-	.	.	.	.	.	.
=75	=75	=75	=75	=75	=75	=75	=75
1AA	-cer-	1c	Sa-	.	.	1ff	-dos,
=76	=76	=76	=76	=76	=76	=76	=76
!	!	!	!	!	!	!LO:TX:a:t=5.	!
2F\	-dos,	4c\	-cer-	1r	.	00r	.
.	.	4A\	.	.	.	.	.
4BB-/	in	4d\	.	.	.	.	.
4C/	e-	4c\	.	.	.	.	.
=77	=77	=77	=77	=77	=77	=77	=77
4D\	-ter-	1B-	-dos,	2f\	in	.	.
4E-\	.	.	.	.	.	.	.
4F\	.	.	.	2d\	e-	.	.
4G\	.	.	.	.	.	.	.
!	!	!	!	!LO:LB:g=original	!	!	!
=78	=78	=78	=78	=78	=78	=78	=78
2C/	-num	4B-\	in	2.e-X\	-ter-	.	.
.	.	4A\	.	.	.	.	.
4C/	in	2c\	e-	.	.	.	.
4D/	e-	.	.	4f\	.	.	.
=79	=79	=79	=79	=79	=79	=79	=79
4E-X\	-ter-	1c	-ter-	2g\	.	.	.
4F\	.	.	.	.	.	.	.
!LO:LB:g=original	!	!	!	!	!	!	!
4G\	.	.	.	2e-\	.	.	.
4A\	.	.	.	.	.	.	.
=80	=80	=80	=80	=80	=80	=80	=80
2D/	-num	4c\	.	1f	-num,	1r	.
.	.	4B-\	.	.	.	.	.
2r	.	4d\	.	.	.	.	.
.	.	4c\	-num,	.	.	.	.
=81	=81	=81	=81	=81	=81	=81	=81
!	!	!	!	!LO:TX:a:t=4.	!	!	!
4G\	in	4B-\	in	00r	.	1dd	in
4F\	.	4A\	.	.	.	.	.
4E-\	.	4G\	.	.	.	.	.
4D\	e-	4B-\	e-	.	.	.	.
=82	=82	=82	=82	=82	=82	=82	=82
4C\	-ter-	2.e-\	-ter-	.	.	4dd\	.
4E-\	.	.	.	.	.	4cc\	e-
4F\	.	.	.	.	.	2ee-\	-ter-
4G\	.	4d\	.	.	.	.	.
!	!	!LO:LB:g=original	!	!	!	!	!
=83	=83	=83	=83	=83	=83	=83	=83
4A\	.	4c\	.	.	.	1ee-	.
4G\	.	4B-\	.	.	.	.	.
4F\	.	4A\	.	.	.	.	.
4E-\	.	4c\	.	.	.	.	.
=84	=84	=84	=84	=84	=84	=84	=84
4D\	.	1f	-num,	.	.	4ee-\	.
4F\	.	.	.	.	.	4dd\	.
!	!	!	!	!	!	!LO:LB:g=original	!
4G\	.	.	.	.	.	4ff\	.
4A\	.	.	.	.	.	4ee-\	.
=85	=85	=85	=85	=85	=85	=85	=85
!	!	!LO:TX:a:t=1.	!	!	!	!	!
2B-\	-num	1r	.	1b-	tu	4dd\	.
.	.	.	.	.	.	4b-\	.
2r	.	.	.	.	.	4cc\	.
.	.	.	.	.	.	4dd\	.
!LO:LB:g=original	!	!	!	!	!	!	!
=86	=86	=86	=86	=86	=86	=86	=86
!LO:TX:a:t=3	!	!	!	!	!	!	!
0r	.	2r	.	2g\	es	4ee-\	.
.	.	.	.	.	.	4ff\	.
.	.	4c\	in	2e-\	Sa-	2gg\	.
.	.	4B-\	e-	.	.	.	.
=87	=87	=87	=87	=87	=87	=87	=87
.	.	1A-X	-ter-	1cc	-cer-	2gg\	.
.	.	.	.	.	.	4ff\	.
.	.	.	.	.	.	4ee-\	.
=88	=88	=88	=88	=88	=88	=88	=88
1r	.	1B-	.	2f\	-dos	1dd	.
.	.	.	.	4b-\	in	.	.
.	.	.	.	4a-X\	e-	.	.
=89	=89	=89	=89	=89	=89	=89	=89
1E-X	tu	2B-\	-num	4g\	-ter-	2ee-\	-num,
.	.	.	.	4f\	.	.	.
.	.	2r	.	4g\	.	2r	.
.	.	.	.	4e-X\	.	.	.
=90	=90	=90	=90	=90	=90	=90	=90
!	!	!	!	!	!	!LO:TX:a:t=4.	!
2C/	es	2r	.	1a-X	-num	00r	.
2AA-X/	Sa-	2c\	in	.	.	.	.
!	!	!	!	!LO:LB:g=original	!	!	!
=91	=91	=91	=91	=91	=91	=91	=91
1F	-cer-	2c\	.	4a-X\	in	.	.
.	.	.	.	4g\	.	.	.
.	.	4f\	.	4a-\	.	.	.
.	.	4e-\	e-	4an\	e-	.	.
!	!	!LO:LB:g=original	!	!	!	!	!
=92	=92	=92	=92	=92	=92	=92	=92
!LO:N:vis=2	!	!	!	!	!	!	!
1BB-	-dos,	4d\	-ter-	1b-	-ter-	.	.
.	.	4c\	.	.	.	.	.
.	.	4d\	.	.	.	.	.
.	.	4B-\	.	.	.	.	.
=93	=93	=93	=93	=93	=93	=93	=93
1G	tu	1e-	-num,	4b-\	.	.	.
.	.	.	.	4an\	.	.	.
.	.	.	.	4b-\	.	.	.
.	.	.	.	4bn\	.	.	.
=94	=94	=94	=94	=94	=94	=94	=94
2E-X\	es	1r	.	1cc	-num,	2r	.
2C/	sa-	.	.	.	.	2ee-\	in
=95	=95	=95	=95	=95	=95	=95	=95
!	!	!	!	!LO:TX:a:t=1.	!	!	!
2A-X\	-cer-	1c	in	1r	.	4ee-\	.
.	.	.	.	.	.	4dd\	.
2A-\	-dos	.	.	.	.	4ee-\	.
.	.	.	.	.	.	4een\	e-
!	!	!	!	!	!	!LO:LB:g=original	!
=96	=96	=96	=96	=96	=96	=96	=96
4D\	in	1B-	e-	2r	.	2ff\	-ter-
2B-\	.	.	.	.	.	.	.
.	.	.	.	2f\	in	2dd\	.
4A-X\	e-	.	.	.	.	.	.
=97	=97	=97	=97	=97	=97	=97	=97
4G\	-ter-	2B-\	-ter-	2g\	.	2ee-X\	-num,
4F\	.	.	.	.	.	.	.
4E-\	.	2B-\	-num	2g\	e-	2r	.
4D\	.	.	.	.	.	.	.
!LO:LB:g=original	!	!	!	!	!	!	!
=98	=98	=98	=98	=98	=98	=98	=98
!	!	!	!	!	!	!LO:TX:a:t=2	!
4C/	.	2e-\	in	2a-X\	-ter-	0r	.
2A-X\	.	.	.	.	.	.	.
.	.	2c\	e-	2e-\	.	.	.
4G\	.	.	.	.	.	.	.
=99	=99	=99	=99	=99	=99	=99	=99
4F\	.	1d	-ter-	1f	.	.	.
4E-\	.	.	.	.	.	.	.
4D\	.	.	.	.	.	.	.
4C/	.	.	.	.	.	.	.
!	!	!	!	!LO:LB:g=original	!	!	!
=100	=100	=100	=100	=100	=100	=100	=100
1BBn	.	2d\	-num,	2g\	-num	1gg	tu
.	.	2r	.	2r	.	.	.
=101	=101	=101	=101	=101	=101	=101	=101
!	!	!LO:TX:a:t=1.	!	!	!	!	!
1C	-num	1r	.	1g	tu	2ee-\	es
.	.	.	.	.	.	2cc\	Sa-
!	!	!LO:LB:g=original	!	!	!	!	!
=102	=102	=102	=102	=102	=102	=102	=102
00r	.	1c	in	2e-\	es	1aa-X	-cer-
.	.	.	.	2c\	Sa-	.	.
=103	=103	=103	=103	=103	=103	=103	=103
.	.	2c\	.	2a-X\	-cer-	2dd\	-dos
.	.	2Bn\	e-	2d\	-dos	4gg\	in
.	.	.	.	.	.	4ff\	e-
=104	=104	=104	=104	=104	=104	=104	=104
.	.	2c\	-ter-	2e-\	in	4ee-\	-ter-
.	.	.	.	.	.	4dd\	.
.	.	4d\	.	4f\	.	4cc\	.
.	.	4e-\	.	4g\	e-	4b-\	.
=105	=105	=105	=105	=105	=105	=105	=105
.	.	4f\	.	1f	-ter-	2an\	-num,
.	.	4e-\	.	.	.	.	.
.	.	4d\	.	.	.	4ff\	in
.	.	4c\	-num,	.	.	4ee-\	e-
!	!	!	!	!	!	!LO:LB:g=original	!
=106	=106	=106	=106	=106	=106	=106	=106
0r	.	2B-\	in	4f\	.	4dd\	-ter-
.	.	.	.	4d\	.	4cc\	.
.	.	4c\	.	4e-\	.	4b-\	.
.	.	4d\	e-	4f\	.	4a\	.
=107	=107	=107	=107	=107	=107	=107	=107
.	.	4e-\	-ter-	1e-	-num	2g\	-num,
.	.	4d\	.	.	.	.	.
.	.	4c\	.	.	.	4ee-\	in
.	.	4B-\	.	.	.	4dd\	e-
=108	=108	=108	=108	=108	=108	=108	=108
1r	.	2A\	.	4e-\	in	4cc\	-ter-
.	.	.	.	4c\	.	4b-\	.
!	!	!	!	!LO:LB:g=original	!	!	!
.	.	4B-\	.	4d\	e-	4a\	.
.	.	4c\	.	4e-\	.	4g\	.
!	!	!LO:LB:g=original	!	!	!	!	!
=109	=109	=109	=109	=109	=109	=109	=109
1D	tu	1A	.	1d	-ter-	1f#X	.
=110	=110	=110	=110	=110	=110	=110	=110
2BB-/	es	2G/	-num	2d\	-num	2g\	-num,
2GG/	Sa-	2r	.	2r	.	2r	.
=111	=111	=111	=111	=111	=111	=111	=111
!LO:TX:a:t=2	!	!	!	!	!	!	!
0E-X	-cer-	2r	.	2r	.	1cc#X	tu
.	.	2G/	tu	2b-\	in	.	.
=112	=112	=112	=112	=112	=112	=112	=112
.	.	2A\	es	2a\	.	2cc#X\	es
.	.	2B-\	Sa-	[2g\	e-	2cc#\	Sa-
=113	=113	=113	=113	=113	=113	=113	=113
!LO:TX:a:t=2	!	!	!	!	!	!	!
0D	-dos,	2B-\	-cer-	2g\]	.	1dd	-cer-
.	.	2G/	-dos	2b-\	-ter-	.	.
=114	=114	=114	=114	=114	=114	=114	=114
.	.	2A\	in	2a\	.	1dd	-dos,
.	.	2B-\	e-	[2g\	-num,	.	.
!	!	!	!	!	!	!LO:LB:g=original	!
=115	=115	=115	=115	=115	=115	=115	=115
1C#X	in	2B-\	-ter-	2g\]	in	1een	in
.	.	2G/	.	2b-\	e-	.	.
!LO:LB:g=original	!	!	!	!	!	!	!
=116	=116	=116	=116	=116	=116	=116	=116
1C#X	e-	2A\	.	2a\	-ter-	1een	e-
.	.	2B-\	.	2g\	.	.	.
!	!	!	!	!LO:LB:g=original	!	!	!
=117	=117	=117	=117	=117	=117	=117	=117
!	!	!LO:TX:b:t=b	!	!	!	!	!
!	!	!LO:TX:a:t=b	!	!	!	!	!
1Cn	-ter-	1B-	.	1g	.	1ee-X	-ter-
=118	=118	=118	=118	=118	=118	=118	=118
!	!	!LO:TX:a:t=a	!	!	!	!	!
1C	-num	1A;;	-num,	1f#X;	-num,	1ee-;	-num,
!	!	!LO:LB:g=original	!	!	!	!	!
=119||	=119||	=119||	=119||	=119||	=119||	=119||	=119||
!LO:TX:a:t=2	!	!	!	!LO:TX:a:t=2	!	!LO:TX:a:t=2	!
0r	.	1d	tu	0r	.	0r	.
=120	=120	=120	=120	=120	=120	=120	=120
.	.	2B-\	es	.	.	.	.
.	.	2G\	Sa-	.	.	.	.
=121	=121	=121	=121	=121	=121	=121	=121
!	!	!LO:TX:a:t=2	!	!	!	!	!
1B-	tu	0B-	-cer-	1g	tu	1ee-X	tu
=122	=122	=122	=122	=122	=122	=122	=122
2G\	es	.	.	1g	.	1ee-	.
2E-\	sa-	.	.	.	.	.	.
=123	=123	=123	=123	=123	=123	=123	=123
!LO:TX:a:t=2	!	!	!	!	!	!	!
0BB-	-cer-	1d	-dos	1a-X	es	[y1ff	es
=124	=124	=124	=124	=124	=124	=124	=124
!	!	!	!	!	!	!LO:N:vis=xstem:cue	!
.	.	2d\	in	2f\	Sa-	2ff\]	.
!	!	!	!	!LO:SIC:v:s=2a-	!	!	!
.	.	2f\	e-	2a\	.	2dd\	Sa-
=125	=125	=125	=125	=125	=125	=125	=125
!	!	!LO:TX:a:t=2	!	!	!	!LO:TX:a:t=2	!
1AA	-dos	0d	-ter-	1an	-cer-	0ff	-cer-
=126	=126	=126	=126	=126	=126	=126	=126
2D\	in	.	.	1a	-dos,	.	.
2F\	e-	.	.	.	.	.	.
=127	=127	=127	=127	=127	=127	=127	=127
[y1A	-ter-	1d	.	2a\	in	1een	.
.	.	.	.	2b-\	e-	.	.
=128	=128	=128	=128	=128	=128	=128	=128
!LO:N:vis=xstem:cue	!	!	!	!	!	!	!
2A\]	.	1c#X	.	2a\	-ter-	1een	-dos
2AA/	-num,	.	.	2g\	.	.	.
!LO:PB:g=original	!	!	!	!LO:LB:g=original	!	!LO:LB:g=original	!
=129	=129	=129	=129	=129	=129	=129	=129
2D\	in	1A	-num	1f	-num	1een	in
2D\	e-	.	.	.	.	.	.
=130	=130	=130	=130	=130	=130	=130	=130
!	!	!LO:TX:a:t=7	!	!	!	!	!
2En\	-ter-	00r	.	2g\	in	2dd\	.
2F\	.	.	.	2a\	.	2cc\	.
=131	=131	=131	=131	=131	=131	=131	=131
2G\	.	.	.	1a	e-	1b-	e-
2G\	num	.	.	.	.	.	.
=132	=132	=132	=132	=132	=132	=132	=132
2A\	in	.	.	2g\	-ter-	2cc\	-ter-
2B-\	e-	.	.	2f\	.	2dd\	.
=133	=133	=133	=133	=133	=133	=133	=133
2C/	-ter-	.	.	1en	-num,	1dd	-num
2C/	-num,	.	.	.	.	.	.
=134	=134	=134	=134	=134	=134	=134	=134
2D\	in	0r	.	2f\	se-	2cc\	in
2En\	e-	.	.	2g\	.	2b-\	e-
=135	=135	=135	=135	=135	=135	=135	=135
2F\	-ter-	.	.	1g	-cun-	1a	-ter-
2F\	-num	.	.	.	.	.	.
=136	=136	=136	=136	=136	=136	=136	=136
2G\	in	1r	.	2f\	.	2b-\	-num,
2A\	e-	.	.	2en\	-dum,	2cc\	se-
=137	=137	=137	=137	=137	=137	=137	=137
1B-	-ter-	2r	.	1d	or-	2cc\	-cun-
!	!	!	!	!	!	!LO:TX:t=P:problem:kreska - oddech(?) w środku główki półnuty	!
.	.	2F/	se-	.	.	2b-\	-dum,
!LO:LB:g=original	!	!LO:LB:g=original	!	!	!	!	!
=138	=138	=138	=138	=138	=138	=138	=138
1B-	-num	2B-\	-cun-	1f	-di-	1dd	or-
.	.	2d\	-dum	.	.	.	.
!	!	!	!	!	!	!LO:LB:g=original	!
=139	=139	=139	=139	=139	=139	=139	=139
1A	in	1d	or-	1f#X	-nem	2dd\	.
.	.	.	.	.	.	2cc\	-di-
=140	=140	=140	=140	=140	=140	=140	=140
1G	e-	1d	-di-	1g	Mel-	1b-	-nem
!	!	!	!	!LO:LB:g=original	!	!	!
=141	=141	=141	=141	=141	=141	=141	=141
!	!	!	!	!	!	!LO:TX:a:t=2	!
1E-	-ter-	1c	-nem	1g	-hi-	0a	Mel-
=142	=142	=142	=142	=142	=142	=142	=142
2C/	.	1e-	Mel-	1g	-se-	.	.
2AA/	.	.	.	.	.	.	.
=143	=143	=143	=143	=143	=143	=143	=143
[y1D	.	[y1d	-hi-	1g	.	[y1a	-hi-
=144	=144	=144	=144	=144	=144	=144	=144
!LO:N:vis=xstem:cue	!	!LO:N:vis=xstem:cue	!	!	!	!LO:N:vis=xstem:cue	!
2D\]	.	2d\]	.	1f#X	.	2a\]	.
2D\	.	2d\	-se-	.	.	2a\	-se-
=145	=145	=145	=145	=145	=145	=145	=145
2G\	-num	2B-\	-deh	2g\	-deh	2g\	-deh
2r	.	2r	.	2r	.	2r	.
=146	=146	=146	=146	=146	=146	=146	=146
!LO:TX:a:t=1.	!	!LO:TX:a:t=1.	!	!LO:TX:a:t=1.	!	!	!
1r	.	1r	.	1r	.	1gg	tu
=147	=147	=147	=147	=147	=147	=147	=147
1G	tu	1Bn	tu	1d	tu	1gg	.
=148	=148	=148	=148	=148	=148	=148	=148
!	!	!LO:SIC:v:s=2Bn	!	!	!	!	!
2F\	es	2B-\	es	2g\	es	2dd\	es
2F\	Sa-	2d\	Sa-	2g\	Sa-	2bn\	Sa-
=149	=149	=149	=149	=149	=149	=149	=149
2E-\	-cer-	2e-\	-cer-	2g\	-cer-	2cc\	-cer-
!LO:LB:g=original	!	!	!	!	!	!	!
2E-\	-dos	2c\	-dos	2g\	-dos	2cc,\	-dos'
!	!	!LO:LB:g=original	!	!	!	!	!
=150	=150	=150	=150	=150	=150	=150-	=150
2D\	n	2Bn\	in	2g\	in	2dd\	in
2C/	e-	2c\	e-	2g\	e-	2ee-\	e-
!	!	!	!	!	!	!LO:LB:g=original	!
=151	=151	=151	=151	=151	=151	=151	=151
!LO:TX:a:t=2	!	!	!	!LO:TX:a:t=2	!	!	!
0D	-ter-	1A	-ter-	0d	-ter-	1f#X	-ter-
=152	=152	=152	=152	=152	=152	=152	=152
.	.	1B-X	.	.	.	1g	.
=153	=153	=153	=153	=153	=153	=153	=153
!LO:TX:a:t=2	!	!LO:TX:a:t=2	!	!LO:TX:a:t=2	!	!	!
0D	.	0A	.	0d	.	1g	.
=154	=154	=154	=154	=154	=154	=154	=154
.	.	.	.	.	.	1f#X	.
=155	=155	=155	=155	=155	=155	=155	=155
!LO:TX:a:t=2.	!	!LO:TX:a:t=2	!	!LO:TX:a:t=2.	!	!	!
0GG	-num.	0B-	-num.	0d	-num.	0g	-num.
=156	=156	=156	=156	=156	=156	=156	=156
==	==	==	==	==	==	==	==
*-	*-	*-	*-	*-	*-	*-	*-
!!!system-decoration: [(s1,s2,s3,s4)]
!!!ENC: Marta Lawrence
!!!END: 2021-01-19
!!!ENC:Krzysztof Stępień
!!!END:2021-01-18
